build/img/parteners/dribble-logo.svg

<svg width="127" height="48" viewBox="0 0 127 48" fill="none" xmlns="http://www.w3.org/2000/svg">
<g style="mix-blend-mode:luminosity" clip-path="url(#clip0_333_1359)">
<path fill-rule="evenodd" clip-rule="evenodd" d="M125.59 30.5633C120.335 38.4606 112.011 36.1691 109.512 34.3749C108.448 35.0147 106.582 36.417 104.095 36.255C98.797 35.9104 96.8999 29.2007 96.8999 29.2007C96.938 29.2275 95.3218 29.6949 94.4484 29.6866C94.4372 31.6542 92.5181 36.3546 87.3387 36.2945C81.5268 36.2273 80.3452 28.5531 80.3452 28.5531C80.3452 28.5531 79.7669 29.2649 77.5677 29.9739C77.6785 28.4622 77.5975 36.0644 70.6317 36.1761C65.1247 36.2646 63.6382 28.4348 63.6382 28.4348C63.6382 28.4348 62.6828 29.3143 60.8314 29.6194C60.949 28.0831 60.7577 36.2019 53.791 36.1761C49.083 36.1588 47.4742 31.353 47.5993 30.686C47.759 29.8359 46.0082 36.2957 41.435 36.195C39.5478 36.1459 38.1409 34.9349 37.258 33.3204C36.0762 34.5189 34.3603 36.195 32.4354 36.195C28.9801 36.195 27.4568 33.6337 27.7148 26.3179C27.7368 25.4502 27.6661 25.109 26.6929 24.9792C26.1087 24.8928 25.5105 24.7292 24.8775 24.643C24.6747 25.243 22.954 35.9998 17.0371 36.204C15.0521 36.2725 13.9667 34.7485 13.0753 33.6174C11.709 35.2194 9.90525 36.255 7.33572 36.255C2.98313 36.255 0.0175781 33.1365 0.0175781 29.2895C0.0175781 25.4425 2.98313 22.3242 7.33572 22.3242C8.1053 22.3242 8.32134 22.422 9.0244 22.6038C7.57853 10.9365 10.9931 9.11303 13.9801 9.11303C16.8478 9.11303 21.7469 15.012 14.8534 29.9751C16.3839 34.4381 19.6833 34.1857 21.2688 24.9982C21.5915 23.1307 20.7287 20.6105 22.0708 20.2588C24.5241 19.616 24.7844 21.5446 25.9347 21.866C27.151 22.2056 27.8609 22.1724 29.0285 22.3885C31.0238 22.7339 31.8024 23.6838 31.5593 25.7996C31.2674 28.4767 30.7567 32.3732 32.3137 32.8481C33.4365 33.1931 35.4865 31.1293 35.8463 30.0001C36.2059 28.871 36.281 28.4845 36.313 27.6563C36.3616 25.8861 36.4227 24.5886 36.7633 23.2499C36.909 22.7319 37.0752 22.3888 37.7365 22.3654C38.2806 22.3531 39.2756 22.2079 39.7137 22.51C40.2975 22.8988 40.2245 23.2933 40.1575 24.3316C39.4785 39.1353 44.7045 31.7452 46.2627 25.8279C45.7078 19.1369 46.0888 9.23555 50.8196 9.06949C53.28 8.98313 54.3677 10.7301 54.4874 12.034C54.8258 15.7168 52.9302 21.8172 50.4372 25.9197C49.0124 34.2907 56.6668 35.9459 57.8909 29.2642C55.8882 28.4202 53.7239 25.0044 55.4851 23.3397C56.4734 22.4055 60.5871 23.7476 60.6545 26.6748C62.6724 26.1965 62.9418 25.1867 62.9698 25.354C62.4151 18.663 62.9295 9.23564 67.6607 9.06957C70.1208 8.98321 71.2084 10.7301 71.328 12.0341C71.6664 15.7168 69.7708 21.8173 67.2781 25.9199C65.8531 34.2907 73.5078 35.946 74.7315 29.2643C73.2488 29.0107 70.1188 25.3775 71.9248 23.3398C72.8899 22.2509 76.9886 24.5154 77.4474 26.7717C79.3859 26.2855 79.6492 25.3078 79.677 25.4724C79.1221 18.7816 79.6366 9.35422 84.3678 9.18815C86.8279 9.10179 87.9155 10.8487 88.0351 12.1527C88.3735 15.8354 86.4779 21.936 83.9849 26.0385C82.5602 34.4095 90.2147 36.0644 91.4388 29.3827C89.4012 29.082 86.5054 25.2458 88.836 23.2833C89.7672 22.4992 93.3253 24.5346 94.1582 26.8568C95.3154 26.8173 96.0357 26.4636 96.1901 26.4279C94.3427 18.573 95.718 9.14836 100.807 9.06969C103.558 9.02721 106.248 10.3877 105.067 17.8606C103.94 24.9906 99.8902 27.9827 99.8996 28.0285C100.135 28.8827 102.214 36.0312 107.447 32.2594C107.176 31.7157 106.905 31.1603 106.753 30.4874C105.886 26.5677 107.59 22.1404 112.221 21.4249C114.874 21.0149 117.374 22.1598 117.769 24.741C118.419 28.9645 114.116 32.0233 112.48 32.6868C111.747 32.3178 119.123 36.5107 123.501 28.108C123.755 27.6282 124.061 27.6689 124.457 27.9162C124.737 28.0908 126.332 29.4299 125.59 30.5633ZM10.5018 28.2517C10.2791 27.6615 9.82198 26.361 9.66033 25.7976C8.7701 25.1114 8.13467 25 6.99197 25C4.45254 25 2.95788 27.0809 2.95788 29.3247C2.95788 31.5684 4.58621 33.6496 7.12565 33.6496C9.32637 33.6496 11.0013 32.3235 11.5123 30.4462C11.1547 29.7143 10.7998 29.0417 10.5018 28.2517ZM13.9179 12.2015C12.1335 12.2015 11.5282 15.974 11.6457 19.1924C11.7496 22.0378 12.6467 24.5428 13.1121 25.6653C13.2302 25.8059 13.2083 25.7144 13.3138 25.8636C16.412 19.8472 15.1269 12.2015 13.9179 12.2015ZM51.0745 12.32C48.7683 12.0855 48.7832 20.6001 49.0695 22.51C50.2672 20.8118 52.3479 12.7772 51.0745 12.32ZM67.9151 12.32C65.6089 12.0855 65.6238 20.6001 65.9102 22.51C67.1078 20.8118 69.1886 12.7772 67.9151 12.32ZM84.6223 12.4384C82.316 12.204 82.3309 20.7186 82.6173 22.6287C83.8149 20.9303 85.8957 12.8956 84.6223 12.4384ZM101.062 11.8215C97.4688 12.461 98.3055 23.0789 98.8513 24.9412C103.084 19.789 103.171 11.628 101.062 11.8215ZM114.528 25.0903C114.346 24.4133 113.432 24.0515 112.802 24.1407C110.997 24.359 109.248 26.3505 109.925 29.3824C110.076 30.0576 110.453 30.6792 110.447 30.6585C114.485 28.2577 114.828 26.3659 114.528 25.0903ZM38.4437 20.0218C37.9281 20.0219 37.424 19.8864 36.9953 19.6326C36.5665 19.3787 36.2322 19.0179 36.0348 18.5957C35.8374 18.1735 35.7857 17.7089 35.8864 17.2607C35.9868 16.8124 36.2352 16.4007 36.5998 16.0775C36.9643 15.7543 37.4288 15.5342 37.9345 15.4451C38.4403 15.3559 38.9645 15.4016 39.4409 15.5765C39.9174 15.7514 40.3245 16.0476 40.6109 16.4276C40.8974 16.8076 41.0503 17.2544 41.0503 17.7114C41.0503 18.0148 40.9829 18.3152 40.8519 18.5955C40.721 18.8758 40.529 19.1305 40.2869 19.345C40.0448 19.5596 39.7575 19.7298 39.4413 19.8459C39.125 19.962 38.7861 20.0218 38.4437 20.0218Z" fill="#0D0C22"/>
</g>
<defs>
<clipPath id="clip0_333_1359">
<rect width="126.369" height="48" fill="white" transform="translate(0.0175781)"/>
</clipPath>
</defs>
</svg>

<svg width="127" height="48" fill="none" xmlns="http://www.w3.org/2000/svg"><g style="mix-blend-mode:luminosity" clip-path="url(#a)"><path fill-rule="evenodd" clip-rule="evenodd" d="M125.59 30.563c-5.255 7.898-13.579 5.606-16.078 3.812-1.064.64-2.93 2.042-5.417 1.88-5.298-.345-7.195-7.054-7.195-7.054.038.026-1.578.494-2.452.486-.01 1.967-1.93 6.668-7.11 6.607-5.811-.067-6.993-7.74-6.993-7.74s-.578.71-2.777 1.42c.11-1.512.03 6.09-6.936 6.202-5.507.089-6.994-7.741-6.994-7.741s-.955.88-2.807 1.184c.118-1.536-.073 6.583-7.04 6.557-4.708-.017-6.317-4.823-6.192-5.49.16-.85-1.59 5.61-6.164 5.509-1.887-.05-3.294-1.26-4.177-2.875-1.182 1.199-2.898 2.875-4.823 2.875-3.455 0-4.978-2.561-4.72-9.877.022-.868-.049-1.209-1.022-1.339-.584-.086-1.183-.25-1.816-.336-.202.6-1.923 11.357-7.84 11.561-1.985.069-3.07-1.456-3.962-2.587-1.366 1.602-3.17 2.638-5.74 2.638-4.352 0-7.317-3.119-7.317-6.966s2.965-6.965 7.318-6.965c.77 0 .985.098 1.688.28C7.58 10.937 10.994 9.113 13.98 9.113c2.868 0 7.767 5.899.873 20.862 1.53 4.463 4.83 4.21 6.416-4.977.323-1.867-.54-4.388.802-4.74 2.453-.642 2.713 1.287 3.864 1.608 1.216.34 1.926.306 3.094.523 1.995.345 2.773 1.295 2.53 3.41-.292 2.678-.802 6.574.755 7.05 1.123.344 3.172-1.72 3.532-2.849.36-1.129.435-1.515.467-2.344.049-1.77.11-3.067.45-4.406.146-.518.312-.861.974-.885.544-.012 1.539-.157 1.977.145.584.389.51.783.444 1.822-.68 14.803 4.547 7.413 6.105 1.496-.555-6.691-.174-16.592 4.557-16.759 2.46-.086 3.548 1.661 3.667 2.965.339 3.683-1.557 9.783-4.05 13.886-1.425 8.37 6.23 10.026 7.454 3.344-2.003-.844-4.167-4.26-2.406-5.924.988-.934 5.102.408 5.17 3.335 2.017-.479 2.287-1.488 2.315-1.321-.555-6.691-.04-16.118 4.69-16.284 2.46-.087 3.548 1.66 3.668 2.964.338 3.683-1.557 9.783-4.05 13.886-1.425 8.37 6.23 10.026 7.453 3.344-1.482-.253-4.612-3.886-2.806-5.924.965-1.09 5.064 1.175 5.522 3.432 1.939-.486 2.202-1.464 2.23-1.3-.555-6.69-.04-16.118 4.69-16.284 2.46-.086 3.548 1.66 3.668 2.965.339 3.682-1.557 9.783-4.05 13.885-1.425 8.372 6.23 10.026 7.454 3.345-2.038-.301-4.934-4.137-2.603-6.1.931-.784 4.49 1.252 5.322 3.574 1.157-.04 1.878-.393 2.032-.43-1.847-7.854-.472-17.279 4.617-17.357 2.751-.043 5.441 1.318 4.26 8.79-1.127 7.13-5.177 10.123-5.167 10.169.235.854 2.314 8.002 7.547 4.23-.271-.543-.542-1.099-.694-1.772-.867-3.92.837-8.347 5.468-9.062 2.653-.41 5.153.735 5.548 3.316.65 4.224-3.653 7.282-5.289 7.946-.733-.37 6.643 3.824 11.021-4.579.254-.48.56-.44.956-.192.28.175 1.875 1.514 1.133 2.647ZM10.502 28.252c-.223-.59-.68-1.891-.842-2.454C8.77 25.11 8.135 25 6.992 25c-2.54 0-4.034 2.08-4.034 4.325 0 2.243 1.628 4.325 4.168 4.325 2.2 0 3.875-1.326 4.386-3.204-.357-.732-.712-1.404-1.01-2.194Zm3.416-16.05c-1.784 0-2.39 3.772-2.272 6.99.104 2.846 1 5.35 1.466 6.473.118.14.096.05.202.199 3.098-6.017 1.813-13.663.604-13.663Zm37.156.118c-2.306-.235-2.29 8.28-2.005 10.19 1.198-1.698 3.279-9.733 2.005-10.19Zm16.841 0c-2.306-.235-2.291 8.28-2.005 10.19 1.198-1.698 3.279-9.733 2.005-10.19Zm16.707.118c-2.306-.234-2.291 8.28-2.005 10.19 1.198-1.698 3.279-9.732 2.005-10.19Zm16.44-.617c-3.593.64-2.757 11.258-2.21 13.12 4.232-5.152 4.319-13.313 2.21-13.12Zm13.466 13.27c-.182-.678-1.096-1.04-1.726-.95-1.805.218-3.554 2.21-2.877 5.241.151.676.528 1.297.522 1.276 4.038-2.4 4.381-4.292 4.081-5.568Zm-76.084-5.07a2.85 2.85 0 0 1-1.449-.388 2.396 2.396 0 0 1-.96-1.037 2.066 2.066 0 0 1-.149-1.335c.1-.449.35-.86.714-1.183a2.724 2.724 0 0 1 1.334-.633 2.919 2.919 0 0 1 1.507.131c.476.175.883.472 1.17.852.286.38.44.826.44 1.283 0 .304-.068.604-.2.885a2.31 2.31 0 0 1-.564.749 2.65 2.65 0 0 1-.846.5 2.9 2.9 0 0 1-.997.177Z" fill="#0D0C22"/></g><defs><clipPath id="a"><path fill="#fff" transform="translate(.018)" d="M0 0h126.369v48H0z"/></clipPath></defs></svg>
